packages/core/src/svgs/realm.svg

<svg width="24" height="24" viewBox="0 0 24 24" fill="none" xmlns="http://www.w3.org/2000/svg">
<g clip-path="url(#clip0_31_16964)">
<path d="M0 0H24V24H0V0Z" fill="url(#paint0_linear_31_16964)"/>
<path d="M10.0715 14.5673L10.3629 13.9801L12.6429 9.42871L13.5001 11.1344L14.3572 12.8573H13.4358C13.3972 12.8573 13.3844 12.8487 13.3715 12.823L12.8058 11.6873L12.6644 11.4087C12.6588 11.3972 12.6531 11.3858 12.6472 11.3744L12.6386 11.3616L12.6301 11.3744C12.624 11.3842 12.6183 11.3942 12.6129 11.4044L12.2572 12.1159L11.4729 13.6801L11.0358 14.5373C11.0272 14.5544 11.0101 14.5673 10.9929 14.5673H10.0715ZM15.2144 14.5673H14.2929C14.2758 14.5673 14.2501 14.5587 14.2458 14.5459L13.9072 13.8687L13.8429 13.7401L13.8386 13.7273L13.8344 13.7187H14.7472C14.7686 13.7187 14.7901 13.7187 14.8029 13.7401L15.1201 14.3744L15.2058 14.5459L15.2101 14.5587L15.2144 14.5716V14.5673ZM22.2858 14.5716H21.4286V11.503L20.5629 12.3687C20.2844 12.6559 20.0058 12.9344 19.7186 13.2173L19.5944 13.0973L19.2172 12.7159C18.5337 12.028 17.8508 11.3394 17.1686 10.6501C17.1544 10.6365 17.1453 10.6183 17.1429 10.5987V9.42871L17.7772 10.063L19.7229 12.0001L19.7315 11.9873C20.5785 11.1385 21.4256 10.29 22.2729 9.44157L22.2858 9.42871V14.5716ZM1.71436 9.433H1.77436C2.52293 9.43259 3.2715 9.43259 4.02007 9.433C4.53864 9.433 4.96293 9.62585 5.31436 9.99871C5.54491 10.2459 5.6953 10.5571 5.74578 10.8913C5.79626 11.2256 5.74447 11.5673 5.59721 11.8716C5.41763 12.2511 5.10501 12.5515 4.71864 12.7159C4.71436 12.7159 4.70578 12.7159 4.7015 12.7244L4.68864 12.7287L5.76007 14.5716H4.80007C4.77007 14.5716 4.75721 14.563 4.74007 14.5373C4.56864 14.2416 4.38864 13.9501 4.21293 13.6544C3.87864 13.1059 3.54864 12.5616 3.24007 12.0001H4.02864C4.45721 12.0001 4.83007 11.6616 4.88578 11.2416C4.94578 10.7359 4.53436 10.3673 4.1915 10.3116L4.16578 10.3073C4.10934 10.2953 4.052 10.2882 3.99436 10.2859H2.36578C2.25864 10.2859 2.19864 10.2473 2.1515 10.1701L1.87293 9.69871L1.74436 9.48014C1.73778 9.47111 1.73062 9.46252 1.72293 9.45442L1.71436 9.44157V9.433ZM15.4286 9.433V14.5716H18.8572V13.7144H16.2858V9.433H15.4286ZM6.42864 12.4287V11.5716H9.85721V12.4287H6.42864ZM6.4715 14.4644C6.43293 14.4944 6.42007 14.5244 6.43293 14.5716H9.85721V13.7144H7.32007C7.29864 13.7144 7.27293 13.7273 7.25578 13.7401L6.90864 14.0616L6.46721 14.4644H6.4715ZM9.85721 9.42871V10.2859H7.32007C7.29684 10.2862 7.27418 10.2786 7.25578 10.2644L6.57864 9.583L6.45007 9.45442L6.43721 9.44157L6.42864 9.42871H9.85721Z" fill="white"/>
</g>
<defs>
<linearGradient id="paint0_linear_31_16964" x1="12" y1="0" x2="12" y2="24" gradientUnits="userSpaceOnUse">
<stop stop-color="#B29AFA"/>
<stop offset="1" stop-color="#F8B4C1"/>
</linearGradient>
<clipPath id="clip0_31_16964">
<rect width="24" height="24" fill="white"/>
</clipPath>
</defs>
</svg>

<svg xmlns="http://www.w3.org/2000/svg" width="24" height="24" fill="none" viewBox="0 0 24 24"><g clip-path="url(#a)"><path fill="url(#b)" d="M0 0h24v24H0z"/><path fill="#fff" d="m10.072 14.567.29-.587 2.28-4.551.858 1.705.857 1.723h-.921c-.039 0-.052-.008-.065-.034l-.565-1.136-.142-.278-.017-.035-.008-.012-.009.012-.017.03-.356.712-.784 1.564-.437.857c-.009.017-.026.03-.043.03zm5.142 0h-.921c-.017 0-.043-.008-.047-.021l-.339-.677-.064-.129-.004-.013-.005-.008h.913c.022 0 .043 0 .056.021l.317.634.086.172.004.013.004.013zm7.072.005h-.857v-3.069l-.866.866a52 52 0 0 1-.844.848l-.125-.12-.377-.381-2.048-2.066a.1.1 0 0 1-.026-.051v-1.17l.634.634L19.723 12l.009-.013 2.54-2.545.014-.013zM1.714 9.433H4.02c.519 0 .943.193 1.294.566a1.68 1.68 0 0 1 .283 1.873c-.18.38-.492.68-.878.844-.005 0-.013 0-.018.008l-.012.005 1.071 1.843H4.8c-.03 0-.043-.009-.06-.035-.171-.295-.351-.587-.527-.883A43 43 0 0 1 3.24 12h.789a.88.88 0 0 0 .857-.758c.06-.506-.352-.875-.695-.93l-.025-.005a1 1 0 0 0-.172-.021H2.366c-.107 0-.167-.039-.215-.116L1.874 9.7l-.129-.219-.021-.026-.009-.012zm13.715 0v5.139h3.428v-.858h-2.571V9.433zm-9 2.996v-.857h3.428v.857zm.042 2.035c-.038.03-.05.06-.038.108h3.424v-.858H7.32a.12.12 0 0 0-.064.026l-.347.322-.442.402zM9.858 9.43v.857H7.32a.1.1 0 0 1-.064-.022l-.677-.681-.129-.129-.013-.012-.008-.013z"/></g><defs><linearGradient id="b" x1="12" x2="12" y1="0" y2="24" gradientUnits="userSpaceOnUse"><stop stop-color="#B29AFA"/><stop offset="1" stop-color="#F8B4C1"/></linearGradient><clipPath id="a"><path fill="#fff" d="M0 0h24v24H0z"/></clipPath></defs></svg>
